X:1
T:New Rochelle, 11.8.11.8 D
T:New Rochelle, 11.8.11.8 D
T:Bentley DeForest Ackley, 1915
T:Public Domain Courtesy of the Cyber Hymnal™
C:Bentley DeForest Ackley, 1915
Z:Public Domain
Z:Courtesy of the Cyber Hymnal™
%%score ( 1 2 ) ( 3 4 )
L:1/8
Q:1/4=95
M:4/4
K:Db
V:1 treble 
V:2 treble 
V:3 bass 
V:4 bass 
V:1
 A2 | [Fd]2 F>G B A2 [DF] | [DG]2 [CF][CE] [A,D]3 [DF] | [CE]2 [EA][Ec] [=Gd]2 [Gc][EB] | %4
 [EA]6 [GA]2 | [Fd]2 F>G B A2 [DF] | [CG]2 [CF][CE] [B,D]3 [DF] | [DE]2 [D=G][EB] [Gd]2 [Gc][EB] | %8
 [EA]6 A2 | A2 A>A A A2 A | [Gc]2 [Fd]2 [Ge] [Ge]2 [GA] | [Af]2 [Ae][Fd] [Ec]2 B2 | [CA]6 [GA]2 | %13
 [Fd]2 [Fd]>[Fd] [Fd] [Fd]2 [Fd] | [Gd]2 [Gd]2 [=Gd] [Gd]2 [Gd] | [Ff]2 FB A2 [Ge]>[Fd] | [Fd]6 |] %17
V:2
 A2 | x2 F>G B A2 x | x8 | x8 | x8 | x2 F>G B A2 x | x8 | x8 | x6 A2 | A2 A>A A A2 A | x8 | x6 ED | %12
 x8 | x8 | x8 | x2 FB A2 x2 | x6 |] %17
V:3
 A,2 | [D,A,]2 F,>G, B, A,2 [D,A,] | [G,B,]2 A,[A,,G,] [D,F,]3 [D,A,] | %3
 [E,A,]2 [C,A,][A,,A,] [E,B,]2 [E,E][E,D] | [A,C]6 [A,C]2 | [D,A,]2 F,>G, B, A,2 [D,A,] | %6
 [A,,B,]2 [A,,A,][=A,,G,] [B,,F,]3 [B,,B,] | [E,=G,]2 [E,B,][E,G,] [E,B,]2 [E,E][E,D] | %8
 [A,C]6 A,2 | A,2 A,>A, A, A,2 A, | [A,E]2 [A,D]2 [A,C] [A,C]2 [A,C] | %11
 [D,D]2 [C,A,][D,A,] [E,A,]2 [E,=G,]2 | A,6 [E,C]2 | [D,D]2 [D,D]>[D,D] [_CD] [CD]2 [CD] | %14
 [B,D]2 [B,D]2 [__B,D] [B,D]2 [B,D] | [A,D]2 F,B, A,2 [A,C]>[D,A,] | [D,A,]6 |] %17
V:4
 A,2 | x2 F,>G, B, A,2 x | x2 A, x5 | x8 | x8 | x2 F,>G, B, A,2 x | x8 | x8 | x6 A,2 | %9
 A,2 A,>A, A, A,2 A, | x8 | x8 | (A,,2 G,2 F,2) x2 | x8 | x8 | x2 F,B, A,2 x2 | x6 |] %17

